dist/img/stack/stack-13.svg

<svg width="110" height="110" viewBox="0 0 110 110" fill="none" xmlns="http://www.w3.org/2000/svg">
<path fill-rule="evenodd" clip-rule="evenodd" d="M25.5649 68.1068C24.8223 66.9354 24.811 65.4433 25.536 64.2606L52.8319 19.7354C54.3501 17.2589 58.0161 17.4754 59.2322 20.1134L84.1684 74.2058C85.0935 76.2129 84.0285 78.5743 81.9115 79.2094L43.1215 90.8464C41.5608 91.3145 39.8792 90.6872 39.0068 89.311L25.5649 68.1068ZM55.9813 32.7542C56.2443 31.4443 58.039 31.2555 58.569 32.4818L75.7696 72.2831C76.0933 73.0325 75.6904 73.8967 74.9081 74.1301L48.1073 82.1305C47.1222 82.4245 46.1785 81.5638 46.3809 80.5557L55.9813 32.7542Z" fill="#B7B7BE"/>
</svg>

<svg width="110" height="110" viewBox="0 0 110 110" fill="none" xmlns="http://www.w3.org/2000/svg"><path fill-rule="evenodd" clip-rule="evenodd" d="M25.565 68.107a3.635 3.635 0 01-.029-3.846l27.296-44.526c1.518-2.476 5.184-2.26 6.4.378l24.936 54.093a3.635 3.635 0 01-2.257 5.003l-38.79 11.637a3.635 3.635 0 01-4.114-1.535L25.565 68.107zM55.98 32.754c.263-1.31 2.058-1.498 2.588-.272l17.2 39.801a1.363 1.363 0 01-.86 1.847l-26.802 8a1.363 1.363 0 01-1.726-1.574l9.6-47.802z" fill="#B7B7BE"/></svg>
